X: 28727
T: My Former Wife
R: jig
M: 6/8
K: Adorian
|:E|EAA ABc|BAG ccc|BGE E3|GED DED|
EAA ABc|B3 GBd|ede gdB|BAA A2:|
|:d|efg aaa|bag aaa|ede g3|gba ged|
efg aaa|bag aaa|ede gdB|BAA A2:|

